X: 2
T: Lakes Of Kincora, The
M: 4/4
L: 1/8
R: hornpipe
K: C Major
|: GB |\
cdcA GFEG | cGcd egc'b | agfe decd | edcB A2 GB |
cdcA GFEG | cGcd egc'b | agfe decd | eccB c2 :|
|:  ef |\
gagf gecG | cega gc'bc' | abc'a gece | fdec dcAB |
cdcA G2 EG | c2 cd egc'b | a2 ge d2 cd | eccB c2 :|
